X: 1
T: String Quartet in D Major opus 64 no 5 mvt 3
C: Franz Joseph Haydn
%%abc-version 2.0
%%abcx-abcm2ps-target-version 5.9.1 (29 Sep 2008)
%%abc-creator hum2abc beta
%%abcx-conversion-date 2021/02/14 14:38:20
%%abc-copyright Copyright (c) 1994, 2000 Center for Computer Assisted Research in the Humanities
%%abc-edited-by Frances Bennion
%%abcx-initial-encoding-date 1997/04/15
%%gracespace 0 6 6
%%humdrum-veritas 320357852
%%humdrum-veritas-data 2515593841
%%linebreak <none>
%%barnumbers 0
L: 1/8
M: 3/4
N: Derived from op64n5-03.krn
Q: "Menuetto: Allegretto"
%%staves [1 2 3 4]
V: 1
V: 2
V: 3 clef=alto
V: 4 clef=bass
K: D
[V:1]z4 D2 [I:setbarnb1]|
[V:2]z4 z2 |
[V:3]z4 z2 |
[V:4]z4 z2 |
[V:1]F2 A2 B,2 |
[V:2]A,2 z4 |
[V:3]F,2 z4 |
[V:4]D,2 z4 |
[V:1]E2 G2 CD |
[V:2]B,2 z4 |
[V:3]G,2 z4 |
[V:4]D,2 z4 |
[V:1]EF GA Bc |
[V:2]CD EF GE |
[V:3]G,2 G,2 G,2 |
[V:4]D,2 D,2 D,2 |
[V:1]d2 d2 cd |
[V:2]F2 z2 GF |
[V:3]F,2 z2 ED |
[V:4]D,2 z4 |
[V:1]ef ga bc' |
[V:2]ED CB, A,G |
[V:3]CB, A,G, F,E, |
[V:4]A,,6 |
[V:1]d'2 d'2 ^d'2 |
[V:2]F2 F2 ^d2 |
[V:3]D,2 D,2 ^D,2 |
[V:4]D,,2 D,,2 ^D,,2 |
[V:1]e'2 e'2 [B2^g2] |
[V:2]e2 e2 [B2E2] |
[V:3]E,2 E,2 E,2 |
[V:4]E,,2 E,,2 E,,2 |
[V:1][a2A2] z4 |
[V:2][c2E2] z2 A2 |
[V:3]A,2 z4 |
[V:4]A,,2 z4 |
[V:1]a2 a2 z2 |
[V:2]c2 e2 A2 |
[V:3]AE DC B,A, |
[V:4]A,,6- |
[V:1]^g2 g2 z2 |
[V:2]B2 d2 E2 |
[V:3]dB A^G FE |
[V:4]A,,6- |
[V:1]g2 g2 z2 |
[V:2]c2 e2 c2 |
[V:3]ec BA GE |
[V:4]A,,4 A,,2 |
[V:1]=f6 |
[V:2]d6- |
[V:3]D2 z4 |
[V:4]_B,,2 D,2 =F,,2 |
[V:1]e4 =f2 |
[V:2]d6 |
[V:3]z6 |
[V:4]G,,2 _B,,2 ^G,,2 |
[V:1]e4 =f2 |
[V:2]c4 d2 |
[V:3]z6 |
[V:4]A,,A, ^G,A, =F,D, |
[V:1]e2 e2 =f2 |
[V:2]c2 c2 d2 |
[V:3]A,A ^GA =FD |
[V:4]A,,2 z4 |
[V:1]e2 z2 D2 |
[V:2]c2 z4 |
[V:3]A,2 z4 |
[V:4]z6 |
[V:1]F2 A2 B,2 |
[V:2]A,2 z4 |
[V:3]F,2 z4 |
[V:4]D,2 z4 |
[V:1]E2 G2 CD |
[V:2]B,2 z4 |
[V:3]G,2 z4 |
[V:4]D,2 z4 |
[V:1]EF GA Bc |
[V:2]CD EF GE |
[V:3]G,2 G,2 G,2 |
[V:4]D,2 D,2 D,2 |
[V:1]d2 d2 a2 |
[V:2]F2 z2 CD |
[V:3]F,2 z2 A,B, |
[V:4]D,2 z4 |
[V:1]g2 g2 g2 |
[V:2]EF GA Bc |
[V:3]CD EF GA |
[V:4]z6 |
[V:1]f2 f2 d'c' |
[V:2]d2 d2 ag |
[V:3]B2 B2 fe |
[V:4]z6 |
[V:1]ba gf e^d |
[V:2]fe dc BA |
[V:3]dc BA GF |
[V:4]z4 E,F, |
[V:1]e^d ef g2 |
[V:2]BA GF E2 |
[V:3]E2 z2 A,C |
[V:4]G,F, E,D, C,A,, |
[V:1]f2 d2 c2 |
[V:2]F2 F2 E2 |
[V:3]DE FG A2 |
[V:4]D,E, F,G, A,2 |
[V:1]d2 z2 d2 |
[V:2]D2 z4 |
[V:3]D2 z4 |
[V:4]D,2 z4 |
[V:1]f2 a2 B2 |
[V:2]z2 F2 G2 |
[V:3]z6 |
[V:4]z6 |
[V:1]g2 A2 f2 |
[V:2]E2 F2 ^D2 |
[V:3]z6 |
[V:4]z6 |
[V:1]G2 e2 F2 |
[V:2]E2 C2 D2 |
[V:3]z6 |
[V:4]z6 |
[V:1]EF GA Bc |
[V:2]D4 DE |
[V:3]B,6 |
[V:4]G,6 |
[V:1]d2 z2 e2 |
[V:2]=F2 z2 D2 |
[V:3]z2 D2 z2 |
[V:4]^G,2 z2 G,2 |
[V:1]=f2 z2 f2 |
[V:2]D2 z2 d2 |
[V:3]z2 D2 z2 |
[V:4]A,2 z2 A,2 |
[V:1]f2 z2 f2 |
[V:2]d2 z2 d2 |
[V:3]z2 D2 z2 |
[V:4]^A,2 z2 A,2 |
[V:1]g2 z2 f2 |
[V:2]d2 z2 d2 |
[V:3]z2 D2 z2 |
[V:4]B,2 z2 A,2 |
[V:1]e2 z2 f2 |
[V:2]d2 z2 d2 |
[V:3]z2 D2 z2 |
[V:4]G,2 z2 A,2 |
[V:1]g2 z2 f2 |
[V:2]d2 z2 dc |
[V:3]z2 D2 z2 |
[V:4]B,2 z2 A,2 |
[V:1]e2 g2 b2 |
[V:2]B2 G2 E2 |
[V:3]z2 B,2 G,2 |
[V:4]G,6 |
[V:1]d4 cd |
[V:2]F4 GF |
[V:3]A,4 ED |
[V:4]A,6 |
[V:1]ef ga bc' |
[V:2]ED CB, A,G |
[V:3]CB, A,G, F,E, |
[V:4]A,,6 |
[V:1]d'2 z4 |
[V:2]F2 z4 |
[V:3]D,2 z2 E,F, |
[V:4]D,,2 z2 C,,D,, |
[V:1]z4 a2 |
[V:2]z4 A2 |
[V:3]G,A, B,C DE |
[V:4]E,,F,, G,,A,, B,,C, |
[V:1]f2 z4 |
[V:2]F2 z2 CD |
[V:3]F2 z4 |
[V:4]D,2 z4 |
[V:1]z6 |
[V:2]E=F GA _B^G |
[V:3]z4 D2 |
[V:4]z6 |
[V:1]z6 |
[V:2]A^G AE AF |
[V:3]C4 =C2 |
[V:4]z6 |
[V:1]z6 |
[V:2]GF GD GE |
[V:3]B,4 _B,2 |
[V:4]z6 |
[V:1]z4 DE |
[V:2]=FE F=C _B,C |
[V:3]A,4 G,2 |
[V:4]z6 |
[V:1]=FA _B=c d=B |
[V:2]A,2 z2 =F2 |
[V:3]=F,2 z4 |
[V:4]z6 |
[V:1]=cB cG ec |
[V:2]E4 _B2 |
[V:3]z6 |
[V:4]z6 |
[V:1]=fe f=c _bg |
[V:2]A4 =c2- |
[V:3]z6 |
[V:4]z4 E,=C |
[V:1]a^g a=f _b=g |
[V:2]c2 =c2 c2- |
[V:3]z4 _BG |
[V:4]=F,E, F,=C E,C |
[V:1]a^g a=f _b=g |
[V:2]c2 =c2 c2- |
[V:3]A^G A=F _B=G |
[V:4]=F,E, F,=C E,C |
[V:1]a=f ge fd |
[V:2]c2 A4 |
[V:3]A=F GE FD |
[V:4]=F,A, C,A, D,F, |
[V:1]_e=c d_B cA |
[V:2]=F6 |
[V:3]_E=C D_B, CA, |
[V:4]A,,=F, _B,,F, =C,_E, |
[V:1]_BA Bd =cB |
[V:2]=F2 >_B2 AG |
[V:3]_B,2 z4 |
[V:4]D,2 z2 _B,,2 |
[V:1]A_B =cA BG |
[V:2]=FG AF GE |
[V:3]=C2 C2 C2 |
[V:4]=C,4 C,2 |
[V:1]=F2 z2 _ba |
[V:2]=F2 z2 g=f |
[V:3]A,2 z2 CD |
[V:4]=F,,2 =F,2 z2 |
[V:1]g=f ef gf |
[V:2]ed cd ed |
[V:3]E=F GA _B^G |
[V:4]z6 |
[V:1]e2 z2 _ba |
[V:2]c2 z2 g=f |
[V:3]A^G AA, CD |
[V:4]z6 |
[V:1]g=f ef gf |
[V:2]ed cd ed |
[V:3]E=F GA _B^G |
[V:4]z6 |
[V:1]e2 a4 |
[V:2]c2 CD E=F |
[V:3]A^G AA, z2 |
[V:4]z4 C,D, |
[V:1]g=f ed d2- |
[V:2]G2 z2 =F2 |
[V:3]z6 |
[V:4]E,=F, G,A, _B,^G, |
[V:1]d2 c2 =c2- |
[V:2]E4 _E2 |
[V:3]z4 A2- |
[V:4]A,^G, A,E, A,F, |
[V:1]c2 B2 _B2 |
[V:2]D4 C2 |
[V:3]A2 G2 G2 |
[V:4]G,F, G,D, G,E, |
[V:1]A2 G2 =F2 |
[V:2]D2 C2 D2 |
[V:3]=F2 A,2 _B,2 |
[V:4]=F,A,, E,A,, _B,,=F,, |
[V:1]ED EG =FE |
[V:2]D4 C2 |
[V:3]_B,4 A,2 |
[V:4]G,,=F,, G,,E,, A,,A,, |
[V:1]D2 z4 |]
[V:2]D2 z4 |]
[V:3]A,2 z4 |]
[V:4]D,,2 z4 |]

